X:97
T:Eight Men of Moidert. Ru2.097, The
%%VWML:RutherfordVol2-2249-p49-0
F:http://www.vwml.org/record/RutherfordVol2/2249/p49
B:RUTHERFORD Complete Collection of 200 Country Dances Vol.2; 1759.
Z:vmp.Mike Hicken 2015 www.village-music-project.org.uk
M:C|
Q:1/4=140
K:F
g|(a/g/f/e/) fc A2 Fc|(A/B/c) Fc AGGg|(a/g/f/e/) fc A2 Fc|(A/B/c) Gc AFF :|
|: c|AFcF dFcF|AFcF (d/c/B/A/) Gc|AFcF dFcF|(A/B/c) Gc AFF :|
W:
W: Cast off two Cu: .|  Cast up again :|  Cross over
W: two Cu: .|  Lead up to the top cast off | Foot it
W: Corners & turn Lead out sides & turn
T:No Matter for that. Ru2.098
L:1/8
B:RUTHERFORD Complete Collection of 200 Country Dances Vol.2; 1759.
Z:vmp.Mike Hicken 2015 www.village-music-project.org.uk
M:C|
Q:1/4=140
K:F
c|fgag f2c2|defd cAGF|fgag afed|cdc=B c3 :|
|: d|Tc2 AB c2 fd|TB2 GA TB2 gB|{B}A2 GF dBAG|FGFE F3 :|
W:
W: The first Cu: foot it & cast off two Cu .|  Lead
W:up to the top foot it and cast off :|  hands
W: round 4 with third Cu: right & Left at top :|.
